X: 133028
Q: "Scotch Jig."
M: 6/8
L: 1/8
K: D
uB |\
vA2vD DED | DED uB2uA | Bcd AFA | BGE uE2ud |\
ug |\
fef ud2ue | fga B2A | Bcd AFA | BGE E2g |
fef d2e | fga B2A | Bcd AFd | AFD D2g |\
fef d2e | fga B2A | Bcd AFA | BGE E2 f/g/ |\
afa geg | fdf ece | dcB AFd | AFD D2 |]


